X: 169
T: Sweet Kate
M:6/8
L:1/8
Q:160
S:Playford
O:Manuscript
A:English
K:Gm
d>cB c>ba|ddd d2 B/2c/2|d>cB c>ba|BGG G3:|
|:AAA A3|ccc c3|ggg g2 g| =f2 d d>ef|g>=fe f>ed|e>dc d>cB| c>BA| d2 c| BGG G3:|

